X: 19978
T: Jim Donoghue's
R: reel
M: 4/4
K: Dmajor
A3F BFAF|BFAF EDBD|A3F BFAF|EDEF DEFB|
A3F BFAF|BFAF ABde|f3e dBAF|1 EDEF DEFG:|2 EDEF D2ze||
f3e f3e|dfed BAFA|Beed e2 de|fedf edBA|
f3e fgfe|dcdA BAFB|ABde fdAF|1 EDEF D2ze|2 EDEF DEFG||

